src/images/confetti.svg

<svg width="177" height="145" viewBox="0 0 177 145" fill="none" xmlns="http://www.w3.org/2000/svg">
<path d="M131.876 57.2303C122.271 53.2281 127.874 69.2368 131.876 77.7414C132.818 79.8185 135.378 90.7484 131.876 101.754C128.375 112.76 119.37 110.759 109.865 118.764C100.36 126.768 93.3564 115.762 80.8499 123.766C67.7812 132.13 64.3414 129.77 52.3352 129.77C40.3289 129.77 25.3211 128.769 19.8183 134.772C14.3154 140.775 2.30932 132.771 0.308147 138.774C-1.69303 144.778 6.31139 146.779 16.8168 143.277C27.3223 139.775 34.8261 142.777 52.3352 138.774C69.8442 134.772 68.8437 140.275 90.3549 134.772C111.866 129.269 121.371 126.768 131.876 118.764C142.382 110.759 143.382 96.2514 145.383 89.7479C147.384 83.2444 143.883 62.233 131.876 57.2303Z" fill="#E7EAF3"/>
<path d="M54.6365 119.964C55.3369 119.364 58.8384 130.27 58.8384 130.27C58.8384 130.27 44.3313 133.271 36.4271 132.771C28.5229 132.271 31.6246 124.867 30.2239 120.164C27.6225 118.864 25.8216 115.562 27.5225 112.56C30.0238 108.158 32.7252 103.755 35.5266 99.5531C35.8268 98.8527 36.1269 98.0523 36.4271 97.3519C38.5282 91.6488 46.1321 92.8495 46.7324 98.7526C47.5328 106.357 48.7335 114.761 54.6365 119.964Z" fill="#8AFFCE"/>
<path d="M132.877 83.7447C131.376 75.7404 129.717 76.7016 127.374 73.7393C125.032 70.777 128.27 64.5959 127.374 62.2331C125.583 57.5074 122.952 52.2277 120.829 49.2261C118.706 46.2244 110.262 36.5628 104.709 36.219C99.1566 35.8752 87.4248 32.3651 81.4246 44.0849C71.8421 51.5515 71.2152 72.8172 73.3645 82.9302C79.7369 113.193 110.742 122.879 120.829 113.761C130.916 104.643 134.378 91.749 132.877 83.7447ZM104.709 100.888C105.784 98.6196 106.858 96.4458 108.202 94.3665C108.56 93.7994 110.351 91.9091 110.441 90.6804C111.068 91.342 111.784 92.0981 112.142 92.2871C113.754 93.2323 115.456 93.7049 117.247 93.5158C118.59 93.4213 119.844 92.9487 120.829 92.1926C120.202 96.2567 119.038 100.51 116.172 103.062C115.277 103.629 114.381 104.101 113.486 104.574C113.217 104.763 112.859 104.858 112.59 105.047C109.455 105.803 105.873 104.763 102.828 103.156C103.545 102.778 104.172 102.022 104.709 100.888ZM84.0217 63.9329C84.0217 61.0029 84.2008 58.073 84.6486 55.143C85.8128 55.6156 87.1561 55.7101 88.4099 55.2375C92.8877 53.6308 96.2012 55.8046 97.3655 59.3962C96.0221 61.381 94.3206 63.3658 93.7832 64.2164C92.7981 65.6341 91.9921 67.1463 91.2757 68.7531C90.5592 67.9025 89.9323 67.0518 89.2159 66.2012C87.6935 64.2164 85.8128 63.5548 84.0217 63.9329Z" fill="#8AFFCE"/>
<path d="M124.573 19.7101C122.472 20.9107 121.471 23.1119 119.17 23.9123C117.069 24.6127 114.668 24.6127 112.467 24.2125C110.065 23.8123 107.864 26.1135 109.265 28.4148C111.566 32.517 116.169 34.7182 120.771 34.0178C125.173 33.4175 131.276 30.2157 131.977 25.3131C132.577 21.3109 128.675 17.3088 124.573 19.7101Z" fill="#E7EAF3"/>
<path d="M155.189 9.10437C153.788 9.00432 152.588 9.60464 151.387 10.205C151.087 10.305 150.887 10.5051 150.587 10.6052L149.786 10.8053C149.186 11.0054 148.686 11.2055 148.185 11.5057C148.085 11.6057 147.485 11.9059 147.885 11.7058C146.685 12.3061 145.384 13.1065 145.484 14.6073C145.684 17.709 148.886 19.4099 151.687 19.51C155.089 19.7101 158.591 18.2093 159.691 14.8075C160.492 11.9059 157.99 9.20443 155.189 9.10437Z" fill="#E7EAF3"/>
<path d="M161.691 78.9421C159.891 78.4418 158.59 79.3423 157.189 80.4429C157.789 79.9426 156.289 81.0432 156.389 81.0432C156.189 81.2433 155.989 81.4434 155.888 81.6435C155.488 81.5435 154.588 81.2433 154.288 81.1433C153.987 81.0432 153.187 80.643 152.487 80.3428C150.986 79.7425 148.685 81.0432 148.385 82.6441C147.684 86.9464 150.886 90.4483 155.088 90.9486C159.39 91.4488 164.293 88.5473 164.693 83.9448C164.793 81.9437 163.893 79.6424 161.691 78.9421Z" fill="#E7EAF3"/>
<path d="M174.299 64.2341C173.198 64.2341 171.998 63.2336 171.998 61.5327V61.2325C171.998 60.232 172.598 59.7317 172.898 59.5316C173.198 59.2314 173.698 59.0313 174.199 59.1314C174.699 58.8312 175.199 58.8312 175.699 59.1314C176.5 59.6316 177 60.5321 177 61.5327C177 63.0335 175.8 64.2341 174.299 64.2341Z" fill="#181B2B"/>
<path d="M129.175 62.5332C129.975 62.1329 130.276 61.3325 129.975 60.5321C124.773 48.4255 115.968 38.7203 107.164 35.2184C103.462 33.7176 99.9599 32.9171 96.5582 32.717C96.0579 32.717 95.5576 32.717 95.1574 32.717C84.8521 32.717 78.3487 39.0204 74.7468 44.3233C70.3446 50.7268 67.8433 59.2314 67.8433 67.6359C67.8433 90.3482 83.9516 121.965 110.065 121.965C125.273 121.965 135.478 103.455 135.378 86.246C135.378 82.9442 135.078 79.6424 134.578 76.3406" stroke="#181B2B" stroke-width="2" stroke-linecap="round" stroke-linejoin="round"/>
<path d="M78.1491 41.0216C66.3429 55.1292 56.0376 69.2369 45.1319 84.1449C37.8281 94.0503 30.4243 104.256 22.4201 114.461C19.9189 117.663 17.4176 120.765 15.0163 123.766C11.0142 128.669 7.31231 133.372 3.61039 138.374C3.21019 138.874 3.21019 139.575 3.51034 140.075C3.8105 140.475 4.31076 140.776 4.81102 140.776C4.91107 140.776 5.01112 140.776 5.11117 140.776L112.867 121.565" stroke="#181B2B" stroke-width="2" stroke-linecap="round" stroke-linejoin="round"/>
<path d="M33.5253 134.772C30.6238 129.769 26.6217 121.865 24.7207 112.46" stroke="#181B2B" stroke-width="2" stroke-linecap="round" stroke-linejoin="round"/>
<path d="M61.4402 130.77C60.9399 130.77 60.5397 130.57 60.2396 130.17C50.5345 116.262 44.9316 99.8534 44.9316 85.0454" stroke="#181B2B" stroke-width="2" stroke-linecap="round" stroke-linejoin="round"/>
<path d="M100.36 80.543C101.961 76.1406 106.163 72.9389 110.466 72.9389C112.667 72.9389 113.667 73.9394 114.468 74.6398C115.168 75.2401 115.568 75.7404 117.169 75.7404C118.77 75.7404 119.47 74.7399 120.671 72.7388C122.072 70.5376 123.672 67.7361 127.875 67.7361C128.175 67.7361 128.575 67.8361 129.075 67.9362C129.676 68.0362 130.476 68.2363 131.276 68.2363C133.778 68.2363 136.079 66.8356 137.48 64.6344" stroke="#181B2B" stroke-width="2" stroke-linecap="round" stroke-linejoin="round"/>
<path d="M115.068 105.156C114.567 105.156 114.067 104.956 113.467 104.656C112.466 104.156 110.665 103.355 107.064 102.355C106.363 102.155 105.863 101.454 105.963 100.754C105.563 100.254 105.563 99.5531 105.863 99.0529C107.264 96.8517 108.064 95.3509 108.664 94.2503C109.365 92.8495 109.865 91.949 110.865 91.7489C111.966 91.4487 112.766 92.0491 114.167 92.9496C115.168 93.6499 116.769 94.6505 119.17 95.9512C119.57 96.1513 119.87 96.5515 119.97 96.9517C120.07 97.3519 119.97 97.8522 119.77 98.1524C117.869 100.954 117.269 102.555 117.069 103.355C116.869 104.056 116.568 104.756 115.768 105.056C115.568 105.156 115.268 105.156 115.068 105.156Z" stroke="#181B2B" stroke-width="2" stroke-linecap="round" stroke-linejoin="round"/>
<path d="M89.6545 63.5337C86.853 63.5337 84.6519 61.4326 84.6519 58.6311C84.6519 55.9296 86.3527 52.2276 89.4543 52.5278C91.1552 52.7279 92.656 53.5283 93.8566 55.0291C94.4569 55.8296 94.8571 57.0302 94.8571 58.2309C94.8571 60.8323 92.7561 63.5337 89.6545 63.5337Z" stroke="#181B2B" stroke-width="2" stroke-linecap="round" stroke-linejoin="round"/>
<path d="M156.79 86.2459C155.389 86.2459 154.088 85.1454 151.887 83.3444C151.287 82.8441 150.587 82.2438 149.786 81.6435C149.386 81.3433 149.186 80.9431 149.186 80.4428C149.086 80.3428 148.986 80.3428 148.886 80.2427C148.285 79.6424 148.385 78.6418 148.986 78.1416C151.487 75.8403 152.288 74.0394 152.888 72.8387C153.388 71.9382 153.788 71.0377 154.789 70.7376C156.089 70.4374 156.99 71.1378 159.992 73.339C160.792 73.9393 161.792 74.7397 162.993 75.5402C163.593 75.9404 163.793 76.8409 163.393 77.4412L162.493 79.2422C160.092 83.7446 159.091 85.6456 157.29 86.0458C157.19 86.246 156.99 86.2459 156.79 86.2459Z" stroke="#181B2B" stroke-width="2" stroke-linecap="round" stroke-linejoin="round"/>
<path d="M133.478 49.8263C133.478 43.8231 138.08 37.1195 144.783 37.1195C147.085 37.1195 148.385 38.5202 148.385 40.9215C148.385 41.4218 148.285 41.9221 148.285 42.4223C148.285 42.8225 148.185 43.2228 148.185 43.623C148.185 45.2238 149.586 45.9242 150.086 45.9242C151.587 45.9242 152.788 43.623 153.988 41.3217C155.689 38.0199 157.79 33.9177 162.292 33.9177C163.793 33.9177 164.994 35.2184 164.994 36.7192C164.994 37.0194 164.994 37.4196 164.894 37.8198C164.894 38.1559 164.794 38.483 164.794 38.8204C166.395 38.6203 167.795 37.1195 169.096 35.7187" stroke="#181B2B" stroke-width="2" stroke-linecap="round" stroke-linejoin="round"/>
<path d="M118.569 28.7149C118.269 28.7149 117.969 28.6148 117.769 28.5148C117.169 28.1146 116.568 27.7144 115.868 27.3141C113.567 25.9134 111.466 24.5126 109.164 23.2119C108.464 22.8117 108.164 21.9112 108.564 21.2108C108.664 20.9107 108.964 20.7106 109.164 20.6105C109.264 20.3104 109.465 20.1102 109.765 19.9101C112.666 16.4082 113.967 14.3071 114.667 12.9064C115.368 11.7057 115.868 11.0053 116.868 10.8052C117.869 10.6051 118.469 11.2054 119.37 11.9058C120.47 12.9064 122.471 14.6073 126.974 16.9085C127.374 17.1086 127.674 17.5088 127.774 18.0091C127.874 18.5094 127.774 18.9096 127.474 19.3098C127.374 19.4099 119.97 28.0145 119.77 28.2146C119.57 28.4147 119.37 28.6148 119.07 28.7149C118.769 28.7149 118.669 28.7149 118.569 28.7149Z" stroke="#181B2B" stroke-width="2" stroke-linecap="round" stroke-linejoin="round"/>
<path d="M150.386 13.7069C148.785 13.7069 147.284 13.0065 146.184 11.9059C144.983 10.9054 144.183 9.30449 144.183 7.40346C144.183 4.30178 146.384 1 149.585 1C149.685 1 149.886 1 149.986 1C150.186 1 150.386 1 150.586 1C153.587 1 156.489 4.20173 156.489 7.50351C156.589 11.3056 153.387 13.7069 150.386 13.7069Z" stroke="#181B2B" stroke-width="2" stroke-linecap="round" stroke-linejoin="round"/>
<path d="M158.39 99.1531L159.291 99.4532C162.092 100.454 168.595 102.755 171.597 102.755C171.897 102.755 172.197 102.755 172.598 102.655" stroke="#181B2B" stroke-width="2" stroke-linecap="round" stroke-linejoin="round"/>
</svg>

<svg width="177" height="145" fill="none" xmlns="http://www.w3.org/2000/svg"><path d="M131.876 57.23c-9.605-4.002-4.002 12.007 0 20.511.942 2.078 3.502 13.007 0 24.013-3.501 11.006-12.506 9.005-22.011 17.01-9.505 8.004-16.509-3.002-29.015 5.002-13.069 8.364-16.509 6.004-28.515 6.004s-27.014-1.001-32.517 5.002c-5.503 6.003-17.509-2.001-19.51 4.002-2.001 6.004 6.003 8.005 16.509 4.503 10.505-3.502 18.01-.5 35.518-4.503 17.51-4.002 16.509 1.501 38.02-4.002 21.511-5.503 31.016-8.004 41.521-16.008 10.506-8.005 11.506-22.513 13.507-29.016 2.001-6.504-1.5-27.515-13.507-32.518z" fill="#E7EAF3"/><path d="M54.636 119.964c.7-.6 4.202 10.306 4.202 10.306s-14.507 3.001-22.41 2.501c-7.905-.5-4.803-7.904-6.204-12.607-2.602-1.3-4.402-4.602-2.701-7.604a215.763 215.763 0 0 1 8.004-13.007c.3-.7.6-1.5.9-2.201 2.101-5.703 9.705-4.502 10.305 1.4.8 7.605 2.002 16.009 7.904 21.212zM132.877 83.745c-1.501-8.005-3.16-7.043-5.503-10.006-2.342-2.962.896-9.143 0-11.506-1.791-4.726-4.422-10.005-6.545-13.007-2.123-3.002-10.567-12.663-16.12-13.007-5.552-.344-17.284-3.854-23.284 7.866-9.583 7.466-10.21 28.732-8.06 38.845 6.372 30.263 37.377 39.949 47.464 30.831 10.087-9.118 13.549-22.012 12.048-30.016zm-28.168 17.143c1.075-2.268 2.149-4.442 3.493-6.522.358-.567 2.149-2.457 2.239-3.686.627.662 1.343 1.418 1.701 1.607 1.612.945 3.314 1.418 5.105 1.229 1.343-.095 2.597-.567 3.582-1.323-.627 4.064-1.791 8.317-4.657 10.869-.895.567-1.791 1.039-2.686 1.512-.269.189-.627.284-.896.473-3.135.756-6.717-.284-9.762-1.891.717-.378 1.344-1.134 1.881-2.268zM84.022 63.933c0-2.93.179-5.86.627-8.79 1.164.473 2.507.567 3.76.094 4.479-1.606 7.792.568 8.956 4.16-1.343 1.984-3.044 3.969-3.582 4.82-.985 1.417-1.79 2.93-2.507 4.536-.717-.85-1.344-1.701-2.06-2.552-1.522-1.985-3.403-2.646-5.194-2.268z" fill="#8AFFCE"/><path d="M124.573 19.71c-2.101 1.2-3.102 3.402-5.403 4.202-2.101.7-4.502.7-6.703.3-2.402-.4-4.603 1.901-3.202 4.203 2.301 4.102 6.904 6.303 11.506 5.603 4.402-.6 10.505-3.802 11.206-8.705.6-4.002-3.302-8.004-7.404-5.603zM155.189 9.104c-1.401-.1-2.601.5-3.802 1.101-.3.1-.5.3-.8.4l-.801.2c-.6.2-1.1.4-1.601.7-.1.1-.7.4-.3.2-1.2.601-2.501 1.402-2.401 2.902.2 3.102 3.402 4.803 6.203 4.903 3.402.2 6.904-1.3 8.004-4.703.801-2.901-1.701-5.603-4.502-5.703zM161.691 78.942c-1.8-.5-3.101.4-4.502 1.5.6-.5-.9.601-.8.601-.2.2-.4.4-.501.6-.4-.1-1.3-.4-1.6-.5-.301-.1-1.101-.5-1.801-.8-1.501-.6-3.802.7-4.102 2.301-.701 4.302 2.501 7.804 6.703 8.305 4.302.5 9.205-2.402 9.605-7.004.1-2.001-.8-4.303-3.002-5.003z" fill="#E7EAF3"/><path d="M174.299 64.234c-1.101 0-2.301-1-2.301-2.701v-.3c0-1.001.6-1.501.9-1.701.3-.3.8-.5 1.301-.4.5-.3 1-.3 1.5 0 .801.5 1.301 1.4 1.301 2.4 0 1.502-1.2 2.702-2.701 2.702z" fill="#181B2B"/><path d="M129.175 62.533c.8-.4 1.101-1.2.8-2-5.202-12.108-14.007-21.813-22.811-25.315-3.702-1.5-7.204-2.3-10.606-2.501h-1.4c-10.306 0-16.81 6.303-20.411 11.606-4.402 6.404-6.904 14.908-6.904 23.313 0 22.712 16.109 54.329 42.222 54.329 15.208 0 25.413-18.51 25.313-35.719 0-3.302-.3-6.604-.8-9.905" stroke="#181B2B" stroke-width="2" stroke-linecap="round" stroke-linejoin="round"/><path d="M78.15 41.022C66.342 55.129 56.037 69.237 45.131 84.145c-7.304 9.905-14.708 20.111-22.712 30.316-2.501 3.202-5.002 6.304-7.404 9.305-4.002 4.903-7.704 9.606-11.406 14.608-.4.5-.4 1.201-.1 1.701.3.4.8.701 1.301.701h.3l107.756-19.211M33.525 134.772c-2.901-5.003-6.903-12.907-8.804-22.312" stroke="#181B2B" stroke-width="2" stroke-linecap="round" stroke-linejoin="round"/><path d="M61.44 130.77c-.5 0-.9-.2-1.2-.6-9.706-13.908-15.308-30.317-15.308-45.125M100.36 80.543c1.601-4.402 5.803-7.604 10.106-7.604 2.201 0 3.201 1 4.002 1.7.7.601 1.1 1.101 2.701 1.101s2.301-1 3.502-3.001c1.401-2.201 3.001-5.003 7.204-5.003.3 0 .7.1 1.2.2.601.1 1.401.3 2.201.3 2.502 0 4.803-1.4 6.204-3.602M115.068 105.156c-.501 0-1.001-.2-1.601-.5-1.001-.5-2.802-1.301-6.403-2.301-.701-.2-1.201-.901-1.101-1.601-.4-.5-.4-1.2-.1-1.701 1.401-2.201 2.201-3.702 2.801-4.803.701-1.4 1.201-2.301 2.201-2.501 1.101-.3 1.901.3 3.302 1.2 1.001.7 2.602 1.701 5.003 3.002.4.2.7.6.8 1 .1.4 0 .901-.2 1.201-1.901 2.802-2.501 4.403-2.701 5.203-.2.701-.501 1.401-1.301 1.701-.2.1-.5.1-.7.1zM89.654 63.534c-2.801 0-5.002-2.101-5.002-4.903 0-2.701 1.7-6.403 4.802-6.103 1.701.2 3.202 1 4.403 2.501.6.8 1 2.001 1 3.202 0 2.601-2.1 5.303-5.203 5.303zM156.79 86.246c-1.401 0-2.702-1.1-4.903-2.902-.6-.5-1.3-1.1-2.101-1.7-.4-.3-.6-.7-.6-1.201-.1-.1-.2-.1-.3-.2-.601-.6-.501-1.601.1-2.101 2.501-2.302 3.302-4.103 3.902-5.303.5-.9.9-1.801 1.901-2.101 1.3-.3 2.201.4 5.203 2.601.8.6 1.8 1.4 3.001 2.201.6.4.8 1.3.4 1.901l-.9 1.801c-2.401 4.503-3.402 6.404-5.203 6.804-.1.2-.3.2-.5.2zM133.478 49.826c0-6.003 4.602-12.706 11.305-12.706 2.302 0 3.602 1.4 3.602 3.802 0 .5-.1 1-.1 1.5 0 .4-.1.8-.1 1.201 0 1.6 1.401 2.301 1.901 2.301 1.501 0 2.702-2.301 3.902-4.602 1.701-3.302 3.802-7.404 8.304-7.404 1.501 0 2.702 1.3 2.702 2.801 0 .3 0 .7-.1 1.1 0 .337-.1.664-.1 1.001 1.601-.2 3.001-1.7 4.302-3.101M118.569 28.715c-.3 0-.6-.1-.8-.2-.6-.4-1.201-.8-1.901-1.2-2.301-1.402-4.402-2.802-6.704-4.103-.7-.4-1-1.3-.6-2.001.1-.3.4-.5.6-.6.1-.3.301-.5.601-.7 2.901-3.503 4.202-5.604 4.902-7.005.701-1.2 1.201-1.9 2.201-2.1 1.001-.2 1.601.4 2.502 1.1 1.1 1 3.101 2.701 7.604 5.002.4.2.7.6.8 1.101.1.5 0 .9-.3 1.3-.1.1-7.504 8.706-7.704 8.906-.2.2-.4.4-.7.5h-.501zM150.386 13.707c-1.601 0-3.102-.7-4.202-1.801-1.201-1-2.001-2.602-2.001-4.503 0-3.101 2.201-6.403 5.402-6.403h1.001c3.001 0 5.903 3.202 5.903 6.504.1 3.802-3.102 6.203-6.103 6.203zM158.39 99.153l.901.3c2.801 1.001 9.304 3.302 12.306 3.302.3 0 .6 0 1.001-.1" stroke="#181B2B" stroke-width="2" stroke-linecap="round" stroke-linejoin="round"/></svg>
